packages/icons/src/components/Icon/assets/default/bold.svg

<svg width="20" height="20" viewBox="0 0 20 20" fill="none" xmlns="http://www.w3.org/2000/svg">
<path fill-rule="evenodd" clip-rule="evenodd" d="M4.70483 3.75C4.70483 3.33579 5.04062 3 5.45483 3H10.8519C11.8795 3 12.865 3.40822 13.5917 4.13485C14.3183 4.86148 14.7265 5.84701 14.7265 6.87462C14.7265 7.86717 14.3457 8.82045 13.6649 9.53911C13.8092 9.64964 13.9469 9.7701 14.0769 9.90005C14.8568 10.68 15.295 11.7379 15.295 12.8409C15.295 13.944 14.8568 15.0019 14.0769 15.7818C13.2969 16.5618 12.239 17 11.136 17L5.45384 16.9992C5.04001 16.9987 4.70483 16.6631 4.70483 16.2492V3.75ZM7.34106 10.75V14.9311H10.5679C11.1223 14.9311 11.654 14.7109 12.0461 14.3188C12.4382 13.9268 12.6584 13.395 12.6584 12.8406C12.6584 12.2861 12.4382 11.7544 12.0461 11.3623C11.654 10.9703 11.1223 10.75 10.5679 10.75H7.34106ZM7.34106 8.68189H10.2838C10.7629 8.68189 11.2224 8.49156 11.5612 8.15277C11.9 7.81399 12.0903 7.35449 12.0903 6.87538C12.0903 6.39626 11.9 5.93677 11.5612 5.59798C11.2224 5.2592 10.7629 5.06887 10.2838 5.06887H7.34106V8.68189Z" fill="#727683"/>
</svg>

<svg xmlns="http://www.w3.org/2000/svg" width="20" height="20" fill="none" viewBox="0 0 20 20">
    <path fill="#727683" fill-rule="evenodd" d="M4.705 3.75a.75.75 0 0 1 .75-.75h5.397a3.875 3.875 0 0 1 2.813 6.54q.216.165.412.36a4.16 4.16 0 0 1-2.941 7.1H5.454a.75.75 0 0 1-.75-.75zm2.636 7v4.181h3.227a2.09 2.09 0 1 0 0-4.181zm0-2.068h2.943a1.807 1.807 0 0 0 0-3.613H7.34z" clip-rule="evenodd"/>
</svg>
